X:16
T:Top of the Cork Road, The
T:Father O'Flynn
Z:Another very widely known tune.
M:6/8
R:jig
K:D
A|dAF DFA|ded cBA|dcd efg|fdf ecA|dAF DFA|ded cBA|dcd efg|fdc d2:|
g|fdf fga|ecA ABc|dcd Bed|cAA A2c|BGB Bcd|AFD DFA|dcd efg|fdc d2:|
<end>
<start>
